; Generated by slicer-engine
G21 ; millimetres
G90 ; absolute positioning
M82 ; extruder absolute mode
M104 S210 ; set nozzle temperature
M140 S60 ; set bed temperature
G28 ; home all axes
M109 S210 ; wait for nozzle temperature
M190 S60 ; wait for bed temperature
G92 E0 ; reset extruder
; layer z=0.100
G1 Z0.100 F9000
G1 E-1.00000 F3000 ; retract
G1 Z0.300 F9000 ; z-hop
G1 X1.000 Y0.000 F9000 ; travel
G1 Z0.100 F9000 ; lower
G1 E0.00000 F3000 ; un-retract
G1 X0.100 Y0.000 E0.02993 F3000
G1 X0.000 Y0.000 E0.03326 F3000
G1 X0.000 Y0.100 E0.03659 F3000
G1 X0.000 Y1.000 E0.06652 F3000
G1 X0.900 Y1.000 E0.09645 F3000
G1 X1.000 Y1.000 E0.09978 F3000
G1 X1.000 Y0.100 E0.12971 F3000
G1 X1.000 Y0.000 E0.13304 F3000
; layer z=0.300
G1 Z0.300 F9000
G1 E-0.86696 F3000 ; retract
G1 Z0.500 F9000 ; z-hop
G1 X1.000 Y0.000 F9000 ; travel
G1 Z0.300 F9000 ; lower
G1 E0.13304 F3000 ; un-retract
G1 X0.300 Y0.000 E0.15632 F3000
G1 X0.000 Y0.000 E0.16630 F3000
G1 X0.000 Y0.300 E0.17628 F3000
G1 X0.000 Y1.000 E0.19956 F3000
G1 X0.700 Y1.000 E0.22284 F3000
G1 X1.000 Y1.000 E0.23282 F3000
G1 X1.000 Y0.300 E0.25610 F3000
G1 X1.000 Y0.000 E0.26608 F3000
; layer z=0.500
G1 Z0.500 F9000
G1 E-0.73392 F3000 ; retract
G1 Z0.700 F9000 ; z-hop
G1 X1.000 Y0.000 F9000 ; travel
G1 Z0.500 F9000 ; lower
G1 E0.26608 F3000 ; un-retract
G1 X0.500 Y0.000 E0.28271 F3000
G1 X0.000 Y0.000 E0.29934 F3000
G1 X0.000 Y0.500 E0.31597 F3000
G1 X0.000 Y1.000 E0.33260 F3000
G1 X0.500 Y1.000 E0.34923 F3000
G1 X1.000 Y1.000 E0.36586 F3000
G1 X1.000 Y0.500 E0.38249 F3000
G1 X1.000 Y0.000 E0.39912 F3000
; layer z=0.700
G1 Z0.700 F9000
G1 E-0.60088 F3000 ; retract
G1 Z0.900 F9000 ; z-hop
G1 X1.000 Y0.000 F9000 ; travel
G1 Z0.700 F9000 ; lower
G1 E0.39912 F3000 ; un-retract
G1 X0.700 Y0.000 E0.40910 F3000
G1 X0.000 Y0.000 E0.43238 F3000
G1 X0.000 Y0.700 E0.45566 F3000
G1 X0.000 Y1.000 E0.46564 F3000
G1 X0.300 Y1.000 E0.47562 F3000
G1 X1.000 Y1.000 E0.49890 F3000
G1 X1.000 Y0.700 E0.50888 F3000
G1 X1.000 Y0.000 E0.53216 F3000
; layer z=0.900
G1 Z0.900 F9000
G1 E-0.46784 F3000 ; retract
G1 Z1.100 F9000 ; z-hop
G1 X1.000 Y0.000 F9000 ; travel
G1 Z0.900 F9000 ; lower
G1 E0.53216 F3000 ; un-retract
G1 X0.900 Y0.000 E0.53549 F3000
G1 X0.000 Y0.000 E0.56542 F3000
G1 X0.000 Y0.900 E0.59536 F3000
G1 X0.000 Y1.000 E0.59868 F3000
G1 X0.100 Y1.000 E0.60201 F3000
G1 X1.000 Y1.000 E0.63194 F3000
G1 X1.000 Y0.900 E0.63527 F3000
G1 X1.000 Y0.000 E0.66520 F3000
; end of print
G91 ; relative positioning
G1 E-2 F3000 ; final retract
G1 Z5 F3000 ; lift nozzle
G90 ; absolute positioning
G28 X0 Y0 ; park
M104 S0 ; nozzle off
M140 S0 ; bed off
M84 ; disable motors
