; HEADER_BLOCK_START
; generated by OrcaSlicer 2.3.2 on 2026-04-26 at 14:42:32
; total layer number: 240
; filament_density: 1.04
; filament_diameter: 1.75
; max_z_height: 48.00
; filament: 1
; HEADER_BLOCK_END

; THUMBNAIL_BLOCK_START

;
; THUMBNAIL_BLOCK_END

; THUMBNAIL_BLOCK_START

;
; THUMBNAIL_BLOCK_END

; external perimeters extrusion width = 0.60mm
; perimeters extrusion width = 0.66mm
; infill extrusion width = 0.66mm
; solid infill extrusion width = 0.72mm
; top infill extrusion width = 0.56mm
; first layer extrusion width = 0.72mm

; EXECUTABLE_BLOCK_START
EXCLUDE_OBJECT_DEFINE NAME=3DBenchy.stl_id_0_copy_0 CENTER=175,175 POLYGON=[[145,165.816],[145.002,165.755],[145.007,165.699],[145.012,165.646],[145.014,165.63],[145.02,165.583],[145.029,165.525],[145.046,165.436],[145.058,165.379],[145.074,165.322],[145.081,165.296],[145.098,165.239],[145.127,165.155],[145.141,165.118],[145.162,165.064],[145.169,165.047],[145.186,165.01],[145.21,164.958],[145.231,164.916],[145.264,164.854],[145.279,164.827],[145.291,164.806],[145.34,164.727],[145.357,164.7],[145.371,164.679],[145.405,164.631],[145.44,164.584],[145.484,164.531],[145.509,164.501],[145.539,164.466],[145.578,164.423],[145.593,164.408],[145.6,164.4],[145.641,164.359],[145.662,164.34],[145.704,164.3],[145.738,164.271],[145.783,164.234],[145.793,164.225],[145.828,164.197],[145.887,164.154],[145.935,164.121],[145.979,164.092],[146.044,164.052],[146.071,164.036],[146.124,164.008],[146.148,163.995],[146.175,163.981],[146.197,163.97],[146.254,163.944],[146.312,163.919],[146.362,163.899],[146.417,163.879],[146.429,163.875],[146.472,163.861],[146.485,163.857],[146.541,163.84],[146.548,163.838],[146.585,163.828],[146.597,163.825],[146.625,163.818],[146.641,163.814],[146.71,163.799],[146.739,163.794],[146.769,163.789],[146.798,163.784],[174.813,159.886],[175.055,159.853],[175.299,159.821],[175.543,159.791],[175.882,159.752],[176.105,159.728],[176.35,159.702],[176.596,159.678],[176.843,159.656],[177.088,159.635],[177.254,159.622],[177.333,159.616],[177.523,159.602],[177.579,159.598],[177.826,159.581],[177.987,159.571],[178.071,159.566],[178.233,159.557],[178.49,159.544],[178.597,159.539],[178.619,159.538],[178.755,159.532],[178.906,159.526],[179.05,159.521],[179.168,159.517],[179.234,159.515],[179.343,159.512],[179.46,159.509],[179.549,159.507],[179.689,159.504],[179.881,159.501],[180.063,159.499],[180.181,159.498],[180.578,159.498],[180.934,159.5],[181.369,159.508],[181.45,159.51],[181.806,159.52],[181.912,159.524],[182.24,159.537],[182.677,159.558],[183.01,159.578],[183.093,159.583],[183.203,159.59],[183.375,159.602],[183.495,159.611],[183.641,159.622],[183.729,159.629],[183.91,159.644],[184.04,159.655],[184.832,159.78],[184.842,159.782],[185.269,159.888],[185.377,159.915],[185.595,159.97],[185.738,160.007],[185.814,160.027],[185.968,160.068],[186.248,160.145],[186.424,160.195],[186.681,160.27],[186.897,160.334],[187.111,160.4],[187.332,160.47],[187.559,160.543],[187.752,160.607],[188.009,160.694],[188.179,160.753],[188.233,160.772],[188.401,160.832],[188.601,160.905],[188.823,160.987],[189.034,161.067],[189.233,161.145],[189.344,161.188],[189.444,161.228],[189.453,161.232],[189.663,161.316],[189.872,161.402],[189.927,161.425],[190.135,161.513],[190.342,161.603],[190.547,161.693],[190.957,161.879],[191.16,161.974],[191.363,162.07],[191.565,162.168],[191.766,162.267],[191.967,162.367],[192.167,162.469],[192.366,162.572],[192.564,162.677],[192.762,162.783],[192.958,162.89],[193.153,162.999],[193.349,163.11],[193.543,163.221],[193.737,163.334],[193.931,163.449],[194.123,163.565],[194.314,163.683],[194.506,163.801],[194.696,163.922],[194.885,164.043],[195.075,164.167],[195.263,164.291],[195.451,164.417],[195.638,164.544],[195.824,164.673],[196.008,164.803],[196.193,164.934],[196.376,165.067],[196.56,165.201],[196.743,165.337],[196.924,165.474],[197.105,165.612],[197.285,165.752],[197.464,165.893],[197.642,166.036],[197.82,166.18],[197.998,166.325],[198.174,166.472],[198.523,166.77],[198.697,166.921],[198.87,167.074],[199.042,167.228],[199.215,167.384],[199.328,167.489],[199.498,167.645],[199.666,167.803],[199.832,167.962],[199.996,168.122],[200.161,168.283],[200.325,168.445],[200.486,168.609],[200.647,168.773],[200.807,168.939],[200.966,169.106],[201.125,169.274],[201.282,169.443],[201.438,169.614],[201.592,169.785],[201.745,169.958],[201.898,170.132],[202.05,170.306],[202.201,170.483],[202.349,170.66],[202.499,170.838],[202.646,171.017],[202.792,171.198],[202.937,171.38],[203.081,171.563],[203.224,171.747],[203.364,171.932],[203.506,172.118],[203.646,172.305],[203.784,172.493],[203.921,172.683],[204.056,172.874],[204.192,173.065],[204.326,173.258],[204.458,173.452],[204.59,173.647],[204.618,173.692],[204.652,173.745],[204.682,173.798],[204.713,173.852],[204.742,173.907],[204.769,173.962],[204.819,174.076],[204.834,174.117],[204.856,174.175],[204.876,174.233],[204.896,174.292],[204.912,174.351],[204.929,174.413],[204.943,174.47],[204.954,174.53],[204.966,174.593],[204.975,174.652],[204.984,174.713],[204.991,174.774],[204.995,174.836],[204.999,174.905],[205,174.966],[205,175.027],[205,175.088],[204.996,175.149],[204.992,175.209],[204.986,175.27],[204.978,175.331],[204.968,175.391],[204.958,175.449],[204.945,175.512],[204.932,175.569],[204.917,175.632],[204.902,175.686],[204.883,175.745],[204.863,175.803],[204.842,175.861],[204.82,175.918],[204.797,175.974],[204.772,176.03],[204.744,176.086],[204.716,176.14],[204.687,176.194],[204.655,176.248],[204.624,176.301],[204.59,176.353],[204.472,176.527],[204.34,176.721],[204.206,176.914],[204.071,177.106],[203.936,177.297],[203.798,177.487],[203.66,177.676],[203.521,177.864],[203.38,178.05],[203.237,178.236],[203.095,178.42],[202.951,178.604],[202.659,178.968],[202.51,179.148],[202.361,179.328],[202.21,179.506],[202.06,179.683],[201.907,179.86],[201.752,180.035],[201.597,180.209],[201.482,180.337],[201.326,180.509],[201.167,180.68],[201.008,180.85],[200.849,181.018],[200.688,181.186],[200.526,181.352],[200.2,181.68],[200.035,181.841],[199.869,182.002],[199.703,182.161],[199.535,182.319],[199.368,182.475],[199.199,182.63],[199.028,182.784],[198.857,182.937],[198.686,183.089],[198.513,183.239],[198.339,183.388],[198.164,183.536],[197.987,183.682],[197.811,183.827],[197.632,183.971],[197.454,184.114],[197.275,184.256],[197.093,184.396],[196.911,184.535],[196.729,184.673],[196.544,184.81],[196.36,184.945],[196.174,185.08],[195.799,185.344],[195.611,185.474],[195.421,185.603],[195.23,185.731],[195.039,185.857],[194.847,185.982],[194.653,186.106],[194.458,186.228],[194.264,186.349],[194.067,186.469],[193.869,186.587],[193.672,186.704],[193.472,186.819],[193.272,186.934],[193.072,187.046],[192.87,187.158],[192.595,187.307],[192.396,187.412],[192.196,187.516],[191.996,187.618],[191.796,187.719],[191.595,187.818],[191.392,187.916],[191.19,188.012],[190.988,188.107],[190.784,188.2],[190.579,188.292],[190.374,188.383],[190.17,188.472],[189.964,188.559],[189.757,188.645],[189.667,188.682],[189.549,188.73],[189.342,188.813],[189.123,188.898],[189.004,188.944],[188.705,189.057],[188.493,189.134],[188.293,189.206],[188.071,189.284],[187.885,189.348],[187.87,189.353],[187.656,189.424],[187.444,189.494],[187.207,189.57],[187.005,189.632],[186.98,189.64],[186.752,189.709],[186.523,189.776],[186.296,189.841],[186.142,189.884],[186.066,189.905],[185.924,189.943],[185.707,190.001],[185.606,190.027],[185.488,190.057],[185.269,190.112],[184.844,190.218],[184.316,190.319],[184.306,190.32],[184.05,190.344],[184.004,190.348],[183.811,190.364],[183.726,190.371],[183.561,190.384],[183.481,190.39],[183.135,190.414],[182.689,190.441],[182.649,190.443],[182.264,190.462],[182.127,190.468],[181.779,190.481],[181.564,190.487],[181.344,190.493],[180.907,190.5],[180.522,190.502],[180.177,190.502],[179.878,190.499],[179.821,190.498],[179.599,190.494],[179.457,190.491],[179.339,190.488],[179.167,190.483],[179.076,190.48],[178.931,190.475],[178.753,190.468],[178.728,190.467],[178.57,190.46],[178.463,190.455],[178.332,190.448],[178.133,190.437],[177.889,190.423],[177.645,190.407],[177.629,190.406],[177.343,190.385],[177.096,190.366],[176.85,190.345],[176.668,190.328],[176.603,190.322],[176.423,190.305],[176.179,190.28],[176.111,190.273],[175.935,190.254],[175.619,190.218],[175.373,190.188],[175.204,190.166],[174.883,190.124],[146.828,186.22],[146.793,186.215],[146.743,186.207],[146.686,186.196],[146.654,186.189],[146.597,186.175],[146.585,186.172],[146.548,186.162],[146.537,186.159],[146.481,186.142],[146.429,186.125],[146.417,186.121],[146.362,186.101],[146.312,186.081],[146.254,186.056],[146.197,186.03],[146.155,186.009],[146.105,185.982],[146.087,185.972],[146.044,185.948],[145.993,185.917],[145.979,185.908],[145.944,185.885],[145.935,185.879],[145.887,185.846],[145.848,185.817],[145.84,185.811],[145.793,185.775],[145.756,185.744],[145.749,185.738],[145.704,185.7],[145.662,185.66],[145.641,185.64],[145.593,185.592],[145.558,185.555],[145.539,185.534],[145.519,185.511],[145.481,185.466],[145.445,185.42],[145.431,185.402],[145.41,185.374],[145.407,185.37],[145.373,185.322],[145.357,185.3],[145.343,185.278],[145.308,185.224],[145.279,185.173],[145.251,185.122],[145.231,185.084],[145.219,185.06],[145.196,185.012],[145.169,184.954],[145.148,184.903],[145.127,184.849],[145.109,184.793],[145.107,184.79],[145.091,184.738],[145.075,184.682],[145.06,184.625],[145.046,184.564],[145.035,184.507],[145.026,184.454],[145.025,184.448],[145.016,184.396],[145.012,184.353],[145.009,184.325],[145.002,184.245],[145.001,184.208],[145,184.179],[145,165.816]]
M106 S0
M106 P2 S0
;TYPE:Custom
START_PRINT EXTRUDER_TEMP=270 BED_TEMP=105 CHAMBER_TEMP=35 MATERIAL=ABS
M106 P3 S153
G90
G21
M83 ; use relative distances for extrusion
; Filament gcode
SET_PRESSURE_ADVANCE ADVANCE=0.03; Override pressure advance value
M106 S0
M106 P2 S0
;LAYER_CHANGE
;Z:0.2
;HEIGHT:0.2
;BEFORE_LAYER_CHANGE
;0.2
G92 E0

G1 E-1 F1800
;AFTER_LAYER_CHANGE
;0.2
;_SET_FAN_SPEED_CHANGING_LAYER
SET_VELOCITY_LIMIT ACCEL=3000 ACCEL_TO_DECEL=1500
G1 Z.6 F42000
G1 X151.807 Y165.862
G1 Z.6
G1 Z.2
G1 E1 F1800
;TYPE:Skirt
;WIDTH:0.72
G1 F3000
G1 X175.349 Y164.477 E1.3277
G1 X177.369 Y164.624 E.11399
G1 X179.615 Y165.074 E.12895
G1 X181.796 Y165.818 E.12975
G1 X183.89 Y166.864 E.13177
G1 X185.804 Y168.164 E.13025
G1 X187.506 Y169.686 E.12857
G1 X188.994 Y171.417 E.12852
G1 X190.239 Y173.334 E.12871
G1 X190.579 Y174.342 E.05987
G1 X190.629 Y175.293 E.05363
G1 X190.418 Y176.253 E.05534
G1 X189.861 Y177.315 E.06746
G1 X188.646 Y179.032 E.11844
G1 X187.458 Y180.363 E.10043
G1 X186.065 Y181.628 E.10597
G1 X184.414 Y182.816 E.11451
G1 X182.411 Y183.911 E.12851
G1 X181.358 Y184.358 E.06442
G1 X179.89 Y184.85 E.08715
G1 X177.453 Y185.364 E.14025
G1 X176.003 Y185.501 E.08197
G1 X174.8 Y185.522 E.06772
G1 X150.208 Y184.038 E1.38706
G1 X149.366 Y183.859 E.04845
G1 X148.47 Y183.442 E.05564
G1 X147.715 Y182.834 E.05457
G1 X147.185 Y182.153 E.0486
G1 X146.749 Y181.195 E.05926
G1 X146.561 Y180.113 E.06183
G1 X146.569 Y169.766 E.58254
G1 X146.749 Y168.805 E.05502
G1 X147.179 Y167.854 E.05877
G1 X147.788 Y167.093 E.05485
G1 X148.465 Y166.561 E.04849
G1 X149.472 Y166.11 E.06209
G1 X150.419 Y165.943 E.05415
G1 X151.747 Y165.865 E.0749
; printing object 3DBenchy.stl id:0 copy 0
G1 E-.7 F1800
;WIPE_START
G1 F3000
G1 X152.745 Y165.807 E-.3
;WIPE_END
EXCLUDE_OBJECT_START NAME=3DBenchy.stl_id_0_copy_0
G1 Z.6 F42000
G1 X185.896 Y178.109 Z.6
G1 Z.2
G1 E1 F1800
;TYPE:Outer wall
;WIDTH:0.702704
G1 F6000
G1 X185.685 Y178.322 E.01646
G1 E-.90998 F1800
;WIPE_START
G1 F6000
G1 X185.896 Y178.109 E-.09002
;WIPE_END
G1 Z.6 F42000
G1 X184.328 Y176.772 Z.6
G1 Z.2
G1 E1 F1800
;WIDTH:0.719999
G1 F6000
G1 X185.694 Y174.82 E.1341
G1 X185.92 Y174.347 E.02956
G1 X185.963 Y174.115 E.01325
;WIDTH:0.761802
G1 X185.969 Y174.002 E.00676
;WIDTH:0.803604
G1 X185.975 Y173.889 E.00716
;WIDTH:0.845407
G1 X185.981 Y173.776 E.00755
;WIDTH:0.887209
G1 X185.987 Y173.663 E.00794
;WIDTH:0.929011
G1 X185.993 Y173.55 E.00834
G1 X185.769 Y173.249 E.02765
;WIDTH:0.911127
G1 X185.621 Y173.214 E.01098
;WIDTH:0.863345
G1 X185.473 Y173.179 E.01037
;WIDTH:0.815563
G1 X185.325 Y173.144 E.00977
;WIDTH:0.767781
G1 X185.177 Y173.109 E.00917
;WIDTH:0.719999
G1 X183.043 Y173.108 E.12013
G1 X182.544 Y173.183 E.0284
G1 X182.394 Y173.245 E.00916
;WIDTH:0.757114
G1 X182.265 Y173.368 E.01057
;WIDTH:0.794228
G1 X182.137 Y173.491 E.01112
;WIDTH:0.831342
G1 X182.008 Y173.614 E.01167
;WIDTH:0.86527
G1 X181.971 Y173.699 E.00632
;WIDTH:0.899197
G1 X181.933 Y173.783 E.00659
;WIDTH:0.933124
G1 X181.896 Y173.868 E.00685
G1 X181.883 Y173.827 E.00315
;WIDTH:0.917821
G1 X181.801 Y173.72 E.00978
;WIDTH:0.868366
G1 X181.72 Y173.613 E.00922
;WIDTH:0.81891
G1 X181.639 Y173.506 E.00867
;WIDTH:0.769455
G1 X181.557 Y173.399 E.00812
;WIDTH:0.719999
G1 X181.194 Y173.154 E.02469
G1 X180.965 Y173.115 E.01308
G1 X180.621 Y173.219 E.0202
G1 X180.322 Y173.529 E.02424
G1 X180.126 Y173.887 E.02299
G1 X179.643 Y175.281 E.08304
G1 X179.317 Y174.452 E.05017
G1 X179.147 Y173.857 E.03482
G1 X179.005 Y173.54 E.01956
G1 X178.761 Y173.289 E.01971
G1 X178.37 Y173.129 E.02378
G1 X178.05 Y173.12 E.01802
G1 X177.693 Y173.265 E.02172
G1 X177.531 Y173.464 E.01441
G1 X177.524 Y173.638 E.0098
;WIDTH:0.670092
G1 X177.516 Y173.812 E.00908
;WIDTH:0.620185
G1 X177.517 Y174.159 E.0167
;WIDTH:0.670092
G1 X177.524 Y174.333 E.00908
;WIDTH:0.719999
G1 X177.532 Y174.507 E.0098
G1 X177.865 Y175.332 E.05006
G1 X178.466 Y176.957 E.09758
G1 X178.668 Y177.418 E.02828
G1 X178.769 Y177.751 E.01964
G1 X178.716 Y177.954 E.0118
G1 X178.375 Y178.764 E.04944
G1 X178.133 Y179.157 E.026
;WIDTH:0.744028
G1 X177.779 Y179.324 E.02283
;WIDTH:0.79042
G1 X177.707 Y179.321 E.00448
;WIDTH:0.836812
G1 X177.635 Y179.318 E.00476
;WIDTH:0.883203
G1 X177.563 Y179.316 E.00504
;WIDTH:0.929595
G1 X177.491 Y179.313 E.00531
;WIDTH:0.975987
G1 X177.418 Y179.31 E.00559
;WIDTH:1.02238
G1 X177.346 Y179.307 E.00587
G1 X177.252 Y179.364 E.00894
;WIDTH:1.01677
G1 X177.204 Y179.434 E.00688
;WIDTH:0.970056
G1 X177.156 Y179.504 E.00655
;WIDTH:0.923338
G1 X177.108 Y179.574 E.00622
;WIDTH:0.876619
G1 X177.082 Y179.676 E.00727
;WIDTH:0.837464
G1 X177.056 Y179.777 E.00693
;WIDTH:0.798309
G1 X177.03 Y179.879 E.00659
;WIDTH:0.759154
G1 X177.004 Y179.981 E.00625
;WIDTH:0.719999
G1 X177.029 Y180.322 E.01929
G1 X177.183 Y180.672 E.0215
G1 X177.493 Y180.941 E.0231
G1 X177.869 Y181.038 E.02187
G1 X178.224 Y181.009 E.02007
G1 X178.713 Y180.851 E.0289
G1 X179.245 Y180.497 E.03597
G1 X179.564 Y180.062 E.03038
G1 X179.724 Y179.747 E.01989
G1 X180.244 Y178.418 E.08036
;WIDTH:0.742469
G1 X180.544 Y177.647 E.04813
;WIDTH:0.789986
G1 X180.597 Y177.569 E.00584
;WIDTH:0.837502
G1 X180.65 Y177.491 E.00621
;WIDTH:0.885019
G1 X180.703 Y177.414 E.00658
;WIDTH:0.932535
G1 X180.756 Y177.336 E.00695
;WIDTH:0.980052
G1 X180.809 Y177.258 E.00733
;WIDTH:1.02757
G1 X180.862 Y177.181 E.0077
G1 X180.998 Y176.762 E.03599
;WIDTH:1.04685
G1 X181.228 Y176.183 E.05208
G1 X181.233 Y176.106 E.00641
;WIDTH:1.00475
G1 X181.238 Y176.029 E.00614
;WIDTH:0.962641
G1 X181.243 Y175.953 E.00587
;WIDTH:0.920536
G1 X181.248 Y175.876 E.0056
;WIDTH:0.878431
G1 X181.253 Y175.8 E.00533
;WIDTH:0.836326
G1 X181.258 Y175.723 E.00506
;WIDTH:0.79422
G1 X181.323 Y175.466 E.01653
;WIDTH:0.75711
G1 X181.388 Y175.21 E.01572
;WIDTH:0.719999
G1 X181.597 Y174.698 E.0311
;WIDTH:0.761787
G1 X181.658 Y174.576 E.00819
;WIDTH:0.803575
G1 X181.72 Y174.454 E.00866
;WIDTH:0.845363
G1 X181.782 Y174.332 E.00914
;WIDTH:0.887151
G1 X181.843 Y174.209 E.00961
;WIDTH:0.928938
G1 X181.905 Y174.087 E.01009
G1 X181.921 Y174.148 E.00463
;WIDTH:0.90721
G1 X181.978 Y174.242 E.0079
;WIDTH:0.86555
G1 X182.034 Y174.336 E.00752
;WIDTH:0.82389
G1 X182.091 Y174.43 E.00714
;WIDTH:0.782229
G1 X182.253 Y174.562 E.01284
;WIDTH:0.751114
G1 X182.416 Y174.693 E.0123
;WIDTH:0.719999
G1 X182.722 Y174.787 E.01806
G1 X183.623 Y174.821 E.05074
G1 X182.813 Y175.939 E.07773
;WIDTH:0.75711
G1 X182.643 Y176.142 E.01572
;WIDTH:0.79422
G1 X182.473 Y176.345 E.01653
;WIDTH:0.836326
