; HEADER_BLOCK_START
; generated by OrcaSlicer 2.3.2 on 2026-04-26 at 14:34:21
; total layer number: 5
; filament_density: 1.04
; filament_diameter: 1.75
; max_z_height: 1.00
; filament: 1
; HEADER_BLOCK_END

; THUMBNAIL_BLOCK_START

;
; THUMBNAIL_BLOCK_END

; THUMBNAIL_BLOCK_START

;
; THUMBNAIL_BLOCK_END

; external perimeters extrusion width = 0.60mm
; perimeters extrusion width = 0.66mm
; infill extrusion width = 0.66mm
; solid infill extrusion width = 0.72mm
; top infill extrusion width = 0.56mm
; first layer extrusion width = 0.72mm

; EXECUTABLE_BLOCK_START
EXCLUDE_OBJECT_DEFINE NAME=simple-cube.stl_id_0_copy_0 CENTER=175,175 POLYGON=[[174.5,175.5],[174.5,174.5],[175.5,174.5],[175.5,175.5],[174.5,175.5]]
M106 S0
M106 P2 S0
;TYPE:Custom
START_PRINT EXTRUDER_TEMP=270 BED_TEMP=105 CHAMBER_TEMP=35 MATERIAL=ABS
M106 P3 S153
G90
G21
M83 ; use relative distances for extrusion
; Filament gcode
SET_PRESSURE_ADVANCE ADVANCE=0.03; Override pressure advance value
M106 S0
M106 P2 S0
;LAYER_CHANGE
;Z:0.2
;HEIGHT:0.2
;BEFORE_LAYER_CHANGE
;0.2
G92 E0

G1 E-1 F1800
;AFTER_LAYER_CHANGE
;0.2
;_SET_FAN_SPEED_CHANGING_LAYER
SET_VELOCITY_LIMIT ACCEL=3000 ACCEL_TO_DECEL=1500
G1 Z.6 F42000
G1 X171.603 Y171.233
G1 Z.6
G1 Z.2
G1 E1 F1800
;TYPE:Skirt
;WIDTH:0.72
G1 F2139
G1 X171.635 Y171.19 E.00297
G1 X173.267 Y170.301 E.10466
G1 X174.495 Y170.125 E.06981
G1 X175.505 Y170.125 E.0569
G1 X177.322 Y170.52 E.10466
G1 X178.81 Y171.635 E.10466
G1 X179.699 Y173.267 E.10466
G1 X179.875 Y174.495 E.06981
G1 X179.875 Y175.505 E.0569
G1 X179.48 Y177.322 E.10466
G1 X178.365 Y178.81 E.10466
G1 X176.733 Y179.699 E.10466
G1 X175.505 Y179.875 E.06981
G1 X174.495 Y179.875 E.0569
G1 X172.678 Y179.48 E.10466
G1 X171.19 Y178.365 E.10466
G1 X170.301 Y176.733 E.10466
G1 X170.125 Y175.505 E.06981
G1 X170.125 Y174.495 E.0569
G1 X170.52 Y172.678 E.10466
G1 X171.567 Y171.281 E.09831
G1 X172.116 Y171.742 F42000
G1 F2139
G1 X172.296 Y171.528 E.01577
G1 X174.495 Y170.802 E.13036
G1 X175.505 Y170.802 E.0569
G1 X177.166 Y171.197 E.09611
G1 X178.472 Y172.296 E.09611
G1 X179.198 Y174.495 E.13036
G1 X179.198 Y175.505 E.0569
G1 X178.803 Y177.166 E.09611
G1 X177.704 Y178.472 E.09611
G1 X175.505 Y179.198 E.13036
G1 X174.495 Y179.198 E.0569
G1 X172.834 Y178.803 E.09611
G1 X171.528 Y177.704 E.09611
G1 X170.802 Y175.505 E.13036
G1 X170.802 Y174.495 E.0569
G1 X171.197 Y172.834 E.09611
G1 X172.077 Y171.788 E.07696
G1 X172.581 Y172.282 F42000
G1 F2139
G1 X172.95 Y171.905 E.02969
G1 X174.495 Y171.479 E.09021
G1 X175.505 Y171.479 E.0569
G1 X176.995 Y171.872 E.08672
G1 X178.095 Y172.95 E.08672
G1 X178.521 Y174.495 E.09021
G1 X178.521 Y175.505 E.0569
G1 X178.128 Y176.995 E.08672
G1 X177.05 Y178.095 E.08672
G1 X175.505 Y178.521 E.09021
G1 X174.495 Y178.521 E.0569
G1 X173.005 Y178.128 E.08672
G1 X171.905 Y177.05 E.08672
G1 X171.479 Y175.505 E.09021
G1 X171.479 Y174.495 E.0569
G1 X171.872 Y173.005 E.08672
G1 X172.539 Y172.324 E.05365
G1 X172.972 Y172.849 F42000
G1 F2139
G1 X173.591 Y172.338 E.04518
G1 X174.495 Y172.156 E.0519
G1 X175.505 Y172.156 E.0569
G1 X176.801 Y172.548 E.07618
G1 X177.662 Y173.591 E.07618
G1 X177.844 Y174.495 E.0519
G1 X177.844 Y175.505 E.0569
G1 X177.452 Y176.801 E.07618
G1 X176.409 Y177.662 E.07618
G1 X175.505 Y177.844 E.0519
G1 X174.495 Y177.844 E.0569
G1 X173.199 Y177.452 E.07618
G1 X172.338 Y176.409 E.07618
G1 X172.156 Y175.505 E.0519
G1 X172.156 Y174.495 E.0569
G1 X172.548 Y173.199 E.07618
G1 X172.926 Y172.887 E.02762
; printing object simple-cube.stl id:0 copy 0
G1 E-.7 F1800
;WIPE_START
G1 F3000
G1 X173.591 Y172.338 E-.25874
G1 X173.726 Y172.311 E-.04126
;WIPE_END
EXCLUDE_OBJECT_START NAME=simple-cube.stl_id_0_copy_0
G1 Z.6 F42000
G1 X175.242 Y175 Z.6
G1 Z.2
G1 E1 F1800
;TYPE:Outer wall
;WIDTH:0.526816
G1 F2139
G1 X175.242 Y174.758 E.00974
G1 X174.758 Y174.758 E.01947
G1 X174.758 Y175.242 E.01947
G1 X175.242 Y175.242 E.01947
G1 X175.242 Y175 E.00974
; stop printing object simple-cube.stl id:0 copy 0
;LAYER_CHANGE
;Z:0.4
;HEIGHT:0.2
;BEFORE_LAYER_CHANGE
;0.4
G92 E0

G1 E-.7 F1800
;WIPE_START
G1 F6000
G1 X175.242 Y175.242 E-.07258
G1 X174.758 Y175.242 E-.14517
G1 X174.758 Y174.968 E-.08225
;WIPE_END
EXCLUDE_OBJECT_END NAME=simple-cube.stl_id_0_copy_0
;AFTER_LAYER_CHANGE
;0.4
;_SET_FAN_SPEED_CHANGING_LAYER
SET_VELOCITY_LIMIT ACCEL=25000 ACCEL_TO_DECEL=12500
M140 S100 ; set bed temperature
; printing object simple-cube.stl id:0 copy 0
SET_VELOCITY_LIMIT ACCEL=6000 ACCEL_TO_DECEL=3000
EXCLUDE_OBJECT_START NAME=simple-cube.stl_id_0_copy_0
G1 Z.8 F42000
G1 X175.242 Y175.242 Z.8
G1 Z.4
G1 E1 F1800
G1 F600
G1 X174.758 Y175.242 E.01947
G1 X174.758 Y174.758 E.01947
G1 X175.242 Y174.758 E.01947
G1 X175.242 Y175.182 E.01706
; stop printing object simple-cube.stl id:0 copy 0
;LAYER_CHANGE
;Z:0.6
;HEIGHT:0.2
;BEFORE_LAYER_CHANGE
;0.6
G92 E0

G1 E-.85 F1800
;WIPE_START
G1 F12000
G1 X174.758 Y175.242 E-.07314
G1 X174.758 Y174.758 E-.07258
G1 X174.787 Y174.758 E-.00428
;WIPE_END
EXCLUDE_OBJECT_END NAME=simple-cube.stl_id_0_copy_0
;AFTER_LAYER_CHANGE
;0.6
;_SET_FAN_SPEED_CHANGING_LAYER
; printing object simple-cube.stl id:0 copy 0
EXCLUDE_OBJECT_START NAME=simple-cube.stl_id_0_copy_0
G1 Z1 F42000
G1 X175.242 Y175.242 Z1
G1 Z.6
G1 E1 F1800
G1 F600
G1 X174.758 Y175.242 E.01947
G1 X174.758 Y174.758 E.01947
G1 X175.242 Y174.758 E.01947
G1 X175.242 Y175.182 E.01706
; stop printing object simple-cube.stl id:0 copy 0
M106 S153
M106 P2 S38
;LAYER_CHANGE
;Z:0.8
;HEIGHT:0.2
;BEFORE_LAYER_CHANGE
;0.8
G92 E0

G1 E-.85 F1800
;WIPE_START
G1 F12000
G1 X174.758 Y175.242 E-.07314
G1 X174.758 Y174.758 E-.07258
G1 X174.787 Y174.758 E-.00428
;WIPE_END
EXCLUDE_OBJECT_END NAME=simple-cube.stl_id_0_copy_0
;AFTER_LAYER_CHANGE
;0.8
;_SET_FAN_SPEED_CHANGING_LAYER
; printing object simple-cube.stl id:0 copy 0
EXCLUDE_OBJECT_START NAME=simple-cube.stl_id_0_copy_0
G1 Z1.2 F42000
G1 X175.242 Y175.242 Z1.2
G1 Z.8
G1 E1 F1800
G1 F600
G1 X174.758 Y175.242 E.01947
G1 X174.758 Y174.758 E.01947
G1 X175.242 Y174.758 E.01947
G1 X175.242 Y175.182 E.01706
; stop printing object simple-cube.stl id:0 copy 0
;LAYER_CHANGE
;Z:1
;HEIGHT:0.2
;BEFORE_LAYER_CHANGE
;1
G92 E0

G1 E-.85 F1800
;WIPE_START
G1 F12000
G1 X174.758 Y175.242 E-.07314
G1 X174.758 Y174.758 E-.07258
G1 X174.787 Y174.758 E-.00428
;WIPE_END
EXCLUDE_OBJECT_END NAME=simple-cube.stl_id_0_copy_0
;AFTER_LAYER_CHANGE
;1
;_SET_FAN_SPEED_CHANGING_LAYER
; printing object simple-cube.stl id:0 copy 0
EXCLUDE_OBJECT_START NAME=simple-cube.stl_id_0_copy_0
G1 Z1.4 F42000
G1 X175.242 Y175.242 Z1.4
G1 Z1
G1 E1 F1800
G1 F600
G1 X174.758 Y175.242 E.01947
G1 X174.758 Y174.758 E.01947
G1 X175.242 Y174.758 E.01947
G1 X175.242 Y175.182 E.01706
; stop printing object simple-cube.stl id:0 copy 0
G1 E-.85 F1800
;WIPE_START
G1 F12000
G1 X174.758 Y175.242 E-.07314
G1 X174.758 Y174.758 E-.07258
G1 X174.787 Y174.758 E-.00428
;WIPE_END
EXCLUDE_OBJECT_END NAME=simple-cube.stl_id_0_copy_0
M106 S0
M106 P2 S0
;TYPE:Custom
; filament end gcode
END_PRINT
M106 P3 S255
; EXECUTABLE_BLOCK_END

; filament used [mm] = 5.97
; filament used [cm3] = 0.01
; filament used [g] = 0.01
; filament cost = 0.00
; total filament used [g] = 0.01
; total filament cost = 0.00
; total layers count = 5
; estimated printing time (normal mode) = 6s
; estimated first layer printing time (normal mode) = 0.795406s

; CONFIG_BLOCK_START
; accel_to_decel_enable = 1
; accel_to_decel_factor = 50%
; activate_air_filtration = 1
; activate_chamber_temp_control = 0
; adaptive_bed_mesh_margin = 0
; adaptive_pressure_advance = 0
; adaptive_pressure_advance_bridges = 0
; adaptive_pressure_advance_model = "0,0,0\n0,0,0"
; adaptive_pressure_advance_overhangs = 0
; additional_cooling_fan_speed = 15
; align_infill_direction_to_model = 0
; alternate_extra_wall = 0
; auxiliary_fan = 1
; bbl_calib_mark_logo = 1
; bbl_use_printhost = 0
; bed_custom_model = 
; bed_custom_texture = 
; bed_exclude_area = 0x0
; bed_mesh_max = 99999,99999
; bed_mesh_min = -99999,-99999
; bed_mesh_probe_distance = 50,50
; bed_temperature_formula = by_highest_temp
; before_layer_change_gcode = ;BEFORE_LAYER_CHANGE\n;[layer_z]\nG92 E0\n
; best_object_pos = 0.5,0.5
; bottom_shell_layers = 3
; bottom_shell_thickness = 0
; bottom_solid_infill_flow_ratio = 1
; bottom_surface_density = 100%
; bottom_surface_pattern = monotonic
; bridge_acceleration = 50%
; bridge_angle = 0
; bridge_density = 100%
; bridge_flow = 1
; bridge_no_support = 0
; bridge_speed = 50
; brim_ears_detection_length = 1
; brim_ears_max_angle = 125
; brim_object_gap = 0.1
; brim_type = no_brim
; brim_use_efc_outline = 0
; brim_width = 5
; calib_flowrate_topinfill_special_order = 0
; chamber_temperature = 35
; change_extrusion_role_gcode = 
; change_filament_gcode = 
; close_fan_the_first_x_layers = 3
; complete_print_exhaust_fan_speed = 100
; cool_plate_temp = 0
; cool_plate_temp_initial_layer = 0
; cooling_tube_length = 5
; cooling_tube_retraction = 91.5
; counterbore_hole_bridging = none
; curr_bed_type = High Temp Plate
; default_acceleration = 25000
; default_bed_type = 
; default_filament_colour = ""
; default_filament_profile = "Generic PLA @System"
; default_jerk = 0
; default_junction_deviation = 0
; default_nozzle_volume_type = Standard
; default_print_profile = 0.20mm Standard @MyKlipper
; deretraction_speed = 30
; detect_narrow_internal_solid_infill = 1
; detect_overhang_wall = 1
; detect_thin_wall = 0
; different_settings_to_system = brim_type;default_acceleration;gap_infill_speed;infill_direction;initial_layer_acceleration;initial_layer_infill_speed;initial_layer_speed;inner_wall_acceleration;inner_wall_speed;internal_bridge_speed;internal_solid_infill_speed;only_one_wall_first_layer;outer_wall_acceleration;outer_wall_speed;skirt_height;skirt_loops;small_perimeter_speed;small_perimeter_threshold;sparse_infill_speed;top_surface_acceleration;top_surface_speed;travel_acceleration;travel_speed;wall_sequence;activate_air_filtration;additional_cooling_fan_speed;chamber_temperature;compatible_printers;complete_print_exhaust_fan_speed;during_print_exhaust_fan_speed;enable_pressure_advance;fan_max_speed;fan_min_speed;filament_flow_ratio;filament_max_volumetric_speed;filament_shrink;nozzle_temperature;nozzle_temperature_initial_layer;pressure_advance;auxiliary_fan;disable_m73;machine_end_gcode;machine_max_acceleration_extruding;machine_max_acceleration_x;machine_max_acceleration_y;machine_max_jerk_e;machine_max_jerk_x;machine_max_jerk_y;machine_max_jerk_z;machine_max_speed_x;machine_max_speed_y;machine_max_speed_z;machine_start_gcode;nozzle_type;print_host;printable_area;printable_height;retraction_length
; disable_m73 = 1
; dont_filter_internal_bridges = disabled
; dont_slow_down_outer_wall = 0
; draft_shield = disabled
; during_print_exhaust_fan_speed = 60
; elefant_foot_compensation = 0
; elefant_foot_compensation_layers = 1
; emit_machine_limits_to_gcode = 1
; enable_arc_fitting = 0
; enable_extra_bridge_layer = disabled
; enable_filament_ramming = 1
; enable_long_retraction_when_cut = 0
; enable_overhang_bridge_fan = 1
; enable_overhang_speed = 1
; enable_power_loss_recovery = printer_configuration
; enable_pressure_advance = 1
; enable_prime_tower = 0
; enable_support = 0
; enable_tower_interface_cooldown_during_tower = 0
; enable_tower_interface_features = 0
; enable_wrapping_detection = 0
; enforce_support_layers = 0
; eng_plate_temp = 100
; eng_plate_temp_initial_layer = 105
; ensure_vertical_shell_thickness = ensure_all
; exclude_object = 1
; extra_loading_move = -2
; extra_perimeters_on_overhangs = 0
; extra_solid_infills = 
; extruder_ams_count = 1#0|4#0;1#0|4#0
; extruder_clearance_height_to_lid = 140
; extruder_clearance_height_to_rod = 36
; extruder_clearance_radius = 65
; extruder_colour = #26A69A
; extruder_offset = 0x0
; extruder_printable_area = 
; extruder_printable_height = 0
; extruder_type = Direct Drive
; extruder_variant_list = "Direct Drive Standard"
; extrusion_rate_smoothing_external_perimeter_only = 0
; fan_cooling_layer_time = 30
; fan_kickstart = 0
; fan_max_speed = 60
; fan_min_speed = 30
; fan_speedup_overhangs = 1
; fan_speedup_time = 0
; filament_adaptive_volumetric_speed = 0
; filament_adhesiveness_category = 0
; filament_change_length = 10
; filament_colour = #26A69A
; filament_colour_type = 1
; filament_cooling_final_speed = 3.4
; filament_cooling_initial_speed = 2.2
; filament_cooling_moves = 4
; filament_cost = 20
; filament_density = 1.04
; filament_diameter = 1.75
; filament_end_gcode = "; filament end gcode\n"
; filament_extruder_variant = "Direct Drive Standard"
; filament_flow_ratio = 1
; filament_flush_temp = 0
; filament_flush_volumetric_speed = 0
; filament_ids = OGFB99
; filament_is_support = 0
; filament_loading_speed = 28
; filament_loading_speed_start = 3
; filament_map = 1
; filament_map_mode = Auto For Flush
; filament_max_volumetric_speed = 34
; filament_minimal_purge_on_wipe_tower = 15
; filament_multi_colour = #26A69A
; filament_multitool_ramming = 0
; filament_multitool_ramming_flow = 10
; filament_multitool_ramming_volume = 10
; filament_notes = ""
; filament_printable = 3
; filament_ramming_parameters = "120 100 6.6 6.8 7.2 7.6 7.9 8.2 8.7 9.4 9.9 10.0| 0.05 6.6 0.45 6.8 0.95 7.8 1.45 8.3 1.95 9.7 2.45 10 2.95 7.6 3.45 7.6 3.95 7.6 4.45 7.6 4.95 7.6"
; filament_self_index = 1
; filament_settings_id = "eSUN ABS HS"
; filament_shrink = 98.94%
; filament_shrinkage_compensation_z = 100%
; filament_soluble = 0
; filament_stamping_distance = 0
; filament_stamping_loading_speed = 0
; filament_start_gcode = "; Filament gcode\n"
; filament_toolchange_delay = 0
; filament_tower_interface_pre_extrusion_dist = 10
; filament_tower_interface_pre_extrusion_length = 0
; filament_tower_interface_print_temp = -1
; filament_tower_interface_purge_volume = 20
; filament_tower_ironing_area = 4
; filament_type = ABS
; filament_unloading_speed = 90
; filament_unloading_speed_start = 100
; filament_vendor = Generic
; file_start_gcode = 
; filename_format = {input_filename_base}_{layer_height}mm_{filament_type[initial_tool]}_{printer_model}_{print_time}.gcode
; fill_multiline = 1
; filter_out_gap_fill = 0
; first_layer_flow_ratio = 1
; first_layer_print_sequence = 0
; flush_into_infill = 0
; flush_into_objects = 0
; flush_into_support = 1
; flush_multiplier = 0.3
; flush_volumes_matrix = 0
; flush_volumes_vector = 140,140
; full_fan_speed_layer = 0
; fuzzy_skin = disabled_fuzzy
; fuzzy_skin_first_layer = 0
; fuzzy_skin_mode = displacement
; fuzzy_skin_noise_type = classic
; fuzzy_skin_octaves = 4
; fuzzy_skin_persistence = 0.5
; fuzzy_skin_point_distance = 0.3
; fuzzy_skin_scale = 1
; fuzzy_skin_thickness = 0.2
; gap_fill_flow_ratio = 1
; gap_fill_target = nowhere
; gap_infill_speed = 120
; gcode_add_line_number = 0
; gcode_comments = 0
; gcode_flavor = klipper
; gcode_label_objects = 1
; grab_length = 0
; has_scarf_joint_seam = 0
; head_wrap_detect_zone = 
; high_current_on_filament_swap = 0
; hole_to_polyhole = 0
; hole_to_polyhole_threshold = 0.01
; hole_to_polyhole_twisted = 1
; host_type = octoprint
; hot_plate_temp = 100
; hot_plate_temp_initial_layer = 105
; idle_temperature = 0
; independent_support_layer_height = 1
; infill_anchor = 400%
; infill_anchor_max = 20
; infill_combination = 0
; infill_combination_max_layer_height = 100%
; infill_direction = 0
; infill_jerk = 9
; infill_lock_depth = 1
; infill_overhang_angle = 60
; infill_shift_step = 0.4
; infill_wall_overlap = 25%
; inherits_group = "0.20mm Standard @MyKlipper";"Generic ABS @System";"MyKlipper 0.6 nozzle"
; initial_layer_acceleration = 3000
; initial_layer_infill_speed = 200
; initial_layer_jerk = 9
; initial_layer_line_width = 120%
; initial_layer_min_bead_width = 85%
; initial_layer_print_height = 0.2
; initial_layer_speed = 100
; initial_layer_travel_speed = 100%
; inner_wall_acceleration = 25000
; inner_wall_flow_ratio = 1
; inner_wall_jerk = 9
; inner_wall_line_width = 110%
; inner_wall_speed = 400
; interface_shells = 0
; interlocking_beam = 0
; interlocking_beam_layer_count = 2
; interlocking_beam_width = 0.8
; interlocking_boundary_avoidance = 2
