; Generated by slicer-engine | flavor: Marlin
; layer_height: 0.2 mm
; nozzle_temp: 210 °C
; bed_temp: 60 °C
; print_speed: 60 mm/s
; wall_count: 3 walls (Arachne VWE)
; infill_density: 20%
; ---
G21 ; millimetres
G90 ; absolute positioning
M82 ; extruder absolute mode
M104 S210 ; set nozzle temperature
M140 S60 ; set bed temperature
G28 ; home all axes
M109 S210 ; wait for nozzle temperature
M190 S60 ; wait for bed temperature
G92 E0 ; reset extruder
;LAYER_CHANGE
;Z:0.100
;HEIGHT:0.200
;BEFORE_LAYER_CHANGE
;0.100
G92 E0
G1 Z0.100 F9000
;AFTER_LAYER_CHANGE
;0.100
;TYPE:Outer wall
;WIDTH:0.40mm
G1 E-1.00000 F3000 ; retract
G1 Z0.300 F9000 ; z-hop
G1 X1.200 Y-7.900 F9000 ; travel
G1 Z0.100 F9000 ; lower
G1 E0.00000 F3000 ; un-retract
G1 X3.250 Y-7.710 E0.06848 F3600
G1 X5.520 Y-7.150 E0.14624 F3600
G1 X7.390 Y-6.380 E0.21350 F3600
G1 X9.020 Y-5.440 E0.27609 F3600
G1 X10.710 Y-4.130 E0.34720 F3600
G1 X12.150 Y-2.630 E0.41636 F3600
G1 X12.960 Y-1.570 E0.46073 F3600
G1 X13.560 Y-0.620 E0.49811 F3600
G1 X13.730 Y-0.200 E0.51318 F3600
G1 X13.740 Y0.130 E0.52416 F3600
G1 X13.620 Y0.510 E0.53741 F3600
G1 X13.070 Y1.400 E0.57221 F3600
G1 X12.390 Y2.340 E0.61080 F3600
G1 X11.550 Y3.310 E0.65347 F3600
G1 X10.130 Y4.620 E0.71773 F3600
G1 X8.690 Y5.650 E0.77662 F3600
G1 X6.920 Y6.600 E0.84343 F3600
G1 X5.020 Y7.310 E0.91089 F3600
G1 X2.780 Y7.780 E0.98702 F3600
G1 X1.180 Y7.900 E1.04038 F3600
G1 X-23.500 Y6.440 E1.86268 F3600
G1 X-24.070 Y6.260 E1.88256 F3600
G1 X-24.460 Y5.950 E1.89913 F3600
G1 X-24.730 Y5.500 E1.91658 F3600
G1 X-24.850 Y4.890 E1.93726 F3600
G1 X-24.850 Y-4.870 E2.26188 F3600
G1 X-24.660 Y-5.660 E2.28891 F3600
G1 X-24.360 Y-6.060 E2.30554 F3600
G1 X-24.070 Y-6.260 E2.31725 F3600
G1 X-23.410 Y-6.450 E2.34010 F3600
G1 X0.600 Y-7.900 E3.14013 F3600
G1 X1.200 Y-7.900 E3.16008 F3600 ; close contour
G1 E2.16008 F3000 ; retract
G1 Z0.300 F9000 ; z-hop
G1 X3.840 Y-1.710 F9000 ; travel
G1 Z0.100 F9000 ; lower
G1 E3.16008 F3000 ; un-retract
G1 X3.580 Y-1.630 E3.16913 F3600
G1 X3.420 Y-1.450 E3.17714 F3600
G1 X3.340 Y-1.160 E3.18715 F3600
G1 X3.360 Y-0.810 E3.19881 F3600
G1 X4.680 Y2.740 E3.32478 F3600
G1 X4.070 Y4.160 E3.37618 F3600
G1 X3.830 Y4.350 E3.38636 F3600
G1 X3.070 Y4.640 E3.41342 F3600
G1 X2.920 Y4.890 E3.42311 F3600
G1 X2.910 Y5.130 E3.43110 F3600
G1 X3.070 Y5.540 E3.44574 F3600
G1 X3.390 Y5.780 E3.45905 F3600
G1 X3.780 Y5.820 E3.47209 F3600
G1 X4.450 Y5.630 E3.49525 F3600
G1 X4.950 Y5.250 E3.51614 F3600
G1 X5.350 Y4.560 E3.54266 F3600
G1 X7.280 Y-0.610 E3.72621 F3600
G1 X7.360 Y-1.020 E3.74010 F3600
G1 X7.230 Y-1.390 E3.75315 F3600
G1 X6.940 Y-1.660 E3.76633 F3600
G1 X6.650 Y-1.720 E3.77618 F3600
G1 X6.370 Y-1.590 E3.78644 F3600
G1 X5.970 Y-0.990 E3.81043 F3600
G1 X5.390 Y0.750 E3.87143 F3600
G1 X4.610 Y-1.380 E3.94687 F3600
G1 X4.250 Y-1.660 E3.96204 F3600
G1 X3.860 Y-1.720 E3.97517 F3600
G1 X3.840 Y-1.710 E3.97591 F3600 ; close contour
G1 E2.97591 F3000 ; retract
G1 Z0.300 F9000 ; z-hop
G1 X-2.590 Y1.180 F9000 ; travel
G1 Z0.100 F9000 ; lower
G1 E3.97591 F3000 ; un-retract
G1 X-3.000 Y1.320 E3.99032 F3600
G1 X-3.390 Y1.670 E4.00775 F3600
G1 X-3.600 Y2.180 E4.02609 F3600
G1 X-3.590 Y2.600 E4.04007 F3600
G1 X-3.420 Y3.010 E4.05483 F3600
G1 X-3.070 Y3.370 E4.07153 F3600
G1 X-2.680 Y3.540 E4.08568 F3600
G1 X-2.180 Y3.550 E4.10231 F3600
G1 X-1.690 Y3.330 E4.12018 F3600
G1 X-1.440 Y3.080 E4.13194 F3600
G1 X-1.230 Y2.620 E4.14876 F3600
G1 X-1.220 Y2.170 E4.16373 F3600
G1 X-1.350 Y1.790 E4.17709 F3600
G1 X-1.720 Y1.370 E4.19570 F3600
G1 X-2.170 Y1.180 E4.21195 F3600
G1 X-2.530 Y1.170 E4.22393 F3600
G1 X-2.590 Y1.180 E4.22595 F3600 ; close contour
G1 E3.22595 F3000 ; retract
G1 Z0.300 F9000 ; z-hop
G1 X-0.140 Y-1.710 F9000 ; travel
G1 Z0.100 F9000 ; lower
G1 E4.22595 F3000 ; un-retract
G1 X-0.450 Y-1.600 E4.23689 F3600
G1 X-0.600 Y-1.450 E4.24395 F3600
G1 X-0.700 Y-1.250 E4.25138 F3600
G1 X-0.700 Y-0.970 E4.26070 F3600
G1 X-0.510 Y-0.490 E4.27787 F3600
G1 X0.220 Y0.790 E4.32688 F3600
G1 X-0.680 Y2.270 E4.38449 F3600
G1 X-0.780 Y2.610 E4.39628 F3600
G1 X-0.710 Y2.950 E4.40782 F3600
G1 X-0.310 Y3.260 E4.42465 F3600
G1 X0.140 Y3.210 E4.43971 F3600
G1 X0.630 Y2.620 E4.46522 F3600
G1 X0.930 Y2.000 E4.48813 F3600
G1 X1.360 Y2.800 E4.51834 F3600
G1 X1.650 Y3.170 E4.53397 F3600
G1 X1.940 Y3.300 E4.54454 F3600
G1 X2.450 Y3.190 E4.56190 F3600
G1 X2.710 Y2.810 E4.57721 F3600
G1 X2.690 Y2.390 E4.59120 F3600
G1 X1.890 Y0.990 E4.64483 F3600
G1 X1.810 Y0.680 E4.65547 F3600
G1 X1.840 Y0.510 E4.66122 F3600
G1 X2.600 Y-0.780 E4.71101 F3600
G1 X2.660 Y-0.990 E4.71828 F3600
G1 X2.600 Y-1.350 E4.73042 F3600
G1 X2.230 Y-1.690 E4.74713 F3600
G1 X1.980 Y-1.720 E4.75550 F3600
G1 X1.760 Y-1.640 E4.76329 F3600
G1 X1.360 Y-1.260 E4.78164 F3600
G1 X1.010 Y-0.550 E4.80797 F3600
G1 X0.490 Y-1.450 E4.84254 F3600
G1 X0.160 Y-1.690 E4.85611 F3600
G1 X-0.120 Y-1.720 E4.86548 F3600
G1 X-0.140 Y-1.710 E4.86622 F3600 ; close contour
G1 E3.86622 F3000 ; retract
G1 Z0.300 F9000 ; z-hop
G1 X8.640 Y-1.710 F9000 ; travel
G1 Z0.100 F9000 ; lower
G1 E4.86622 F3000 ; un-retract
G1 X8.190 Y-1.620 E4.88149 F3600
G1 X7.950 Y-1.390 E4.89254 F3600
G1 X7.860 Y-0.930 E4.90813 F3600
G1 X7.970 Y-0.630 E4.91876 F3600
G1 X8.120 Y-0.480 E4.92581 F3600
G1 X8.480 Y-0.350 E4.93854 F3600
G1 X9.640 Y-0.370 E4.97713 F3600
G1 X7.940 Y2.030 E5.07495 F3600
G1 X7.820 Y2.440 E5.08916 F3600
G1 X7.900 Y2.920 E5.10535 F3600
G1 X8.100 Y3.180 E5.11626 F3600
G1 X8.390 Y3.300 E5.12670 F3600
G1 X10.980 Y3.270 E5.21285 F3600
G1 X11.290 Y3.160 E5.22379 F3600
G1 X11.510 Y2.900 E5.23511 F3600
G1 X11.560 Y2.470 E5.24951 F3600
G1 X11.450 Y2.190 E5.25952 F3600
G1 X11.240 Y2.010 E5.26872 F3600
G1 X10.930 Y1.910 E5.27955 F3600
G1 X9.720 Y1.920 E5.31980 F3600
G1 X11.370 Y-0.490 E5.41694 F3600
G1 X11.480 Y-0.870 E5.43010 F3600
G1 X11.410 Y-1.360 E5.44656 F3600
G1 X11.280 Y-1.560 E5.45449 F3600
G1 X10.950 Y-1.710 E5.46655 F3600
G1 X8.720 Y-1.720 E5.54072 F3600
G1 X8.640 Y-1.710 E5.54340 F3600 ; close contour
G1 E4.54340 F3000 ; retract
G1 Z0.300 F9000 ; z-hop
G1 X-21.800 Y-3.320 F9000 ; travel
G1 Z0.100 F9000 ; lower
G1 E5.54340 F3000 ; un-retract
G1 X-22.200 Y-3.270 E5.55681 F3600
G1 X-22.900 Y-3.020 E5.58153 F3600
G1 X-23.360 Y-2.690 E5.60036 F3600
G1 X-23.780 Y-2.200 E5.62183 F3600
G1 X-24.060 Y-1.660 E5.64206 F3600
G1 X-24.250 Y-0.950 E5.66651 F3600
G1 X-24.280 Y0.650 E5.71973 F3600
G1 X-24.100 Y1.490 E5.74830 F3600
G1 X-23.870 Y1.990 E5.76661 F3600
G1 X-23.230 Y2.730 E5.79915 F3600
G1 X-22.850 Y2.970 E5.81410 F3600
G1 X-22.260 Y3.190 E5.83504 F3600
G1 X-21.190 Y3.240 E5.87067 F3600
G1 X-20.590 Y3.090 E5.89124 F3600
G1 X-20.040 Y2.750 E5.91274 F3600
G1 X-19.640 Y2.170 E5.93618 F3600
G1 X-19.660 Y1.740 E5.95050 F3600
G1 X-19.910 Y1.480 E5.96249 F3600
G1 X-20.300 Y1.340 E5.97627 F3600
G1 X-20.710 Y1.410 E5.99011 F3600
G1 X-21.080 Y1.750 E6.00682 F3600
G1 X-21.510 Y1.860 E6.02158 F3600
G1 X-22.040 Y1.790 E6.03936 F3600
G1 X-22.480 Y1.520 E6.05653 F3600
G1 X-22.710 Y1.190 E6.06991 F3600
G1 X-22.860 Y0.710 E6.08664 F3600
G1 X-22.910 Y-0.230 E6.11795 F3600
G1 X-22.810 Y-1.000 E6.14377 F3600
G1 X-22.450 Y-1.620 E6.16762 F3600
G1 X-21.870 Y-1.910 E6.18919 F3600
G1 X-21.380 Y-1.890 E6.20550 F3600
G1 X-20.490 Y-1.420 E6.23897 F3600
G1 X-20.090 Y-1.430 E6.25228 F3600
G1 X-19.760 Y-1.700 E6.26646 F3600
G1 X-19.630 Y-2.190 E6.28332 F3600
G1 X-19.840 Y-2.630 E6.29954 F3600
G1 X-20.340 Y-3.040 E6.32105 F3600
G1 X-20.960 Y-3.280 E6.34316 F3600
G1 X-21.720 Y-3.330 E6.36849 F3600
G1 X-21.800 Y-3.320 E6.37117 F3600 ; close contour
G1 E5.37117 F3000 ; retract
G1 Z0.300 F9000 ; z-hop
G1 X-11.700 Y-3.320 F9000 ; travel
G1 Z0.100 F9000 ; lower
G1 E6.37117 F3000 ; un-retract
G1 X-12.180 Y-3.240 E6.38736 F3600
G1 X-12.790 Y-2.960 E6.40968 F3600
G1 X-13.090 Y-2.640 E6.42427 F3600
G1 X-13.170 Y-2.210 E6.43882 F3600
G1 X-12.970 Y-1.820 E6.45340 F3600
G1 X-12.590 Y-1.580 E6.46834 F3600
G1 X-12.310 Y-1.610 E6.47771 F3600
G1 X-11.590 Y-2.010 E6.50511 F3600
G1 X-11.370 Y-2.020 E6.51243 F3600
G1 X-11.150 Y-1.900 E6.52077 F3600
G1 X-11.040 Y-1.640 E6.53016 F3600
G1 X-11.120 Y-1.350 E6.54016 F3600
G1 X-11.370 Y-1.140 E6.55102 F3600
G1 X-12.190 Y-0.920 E6.57926 F3600
G1 X-12.430 Y-0.600 E6.59256 F3600
G1 X-12.490 Y-0.140 E6.60799 F3600
G1 X-12.400 Y0.080 E6.61590 F3600
G1 X-12.220 Y0.240 E6.62391 F3600
G1 X-11.530 Y0.400 E6.64747 F3600
G1 X-11.120 Y0.600 E6.66264 F3600
G1 X-10.810 Y1.010 E6.67973 F3600
G1 X-10.770 Y1.480 E6.69542 F3600
G1 X-10.990 Y1.830 E6.70917 F3600
G1 X-11.330 Y1.970 E6.72140 F3600
G1 X-11.510 Y1.940 E6.72747 F3600
G1 X-12.170 Y1.520 E6.75349 F3600
G1 X-12.750 Y1.530 E6.77278 F3600
G1 X-13.080 Y1.790 E6.78676 F3600
G1 X-13.170 Y2.280 E6.80333 F3600
G1 X-13.040 Y2.650 E6.81637 F3600
G1 X-12.560 Y3.050 E6.83715 F3600
G1 X-12.010 Y3.220 E6.85630 F3600
G1 X-11.070 Y3.240 E6.88757 F3600
G1 X-10.510 Y3.100 E6.90677 F3600
G1 X-9.940 Y2.740 E6.92919 F3600
G1 X-9.520 Y2.210 E6.95169 F3600
G1 X-9.300 Y1.630 E6.97232 F3600
G1 X-9.270 Y1.050 E6.99163 F3600
G1 X-9.520 Y0.110 E7.02399 F3600
G1 X-9.820 Y-0.300 E7.04088 F3600
G1 X-10.200 Y-0.490 E7.05501 F3600
G1 X-9.840 Y-0.710 E7.06905 F3600
G1 X-9.630 Y-1.000 E7.08095 F3600
G1 X-9.530 Y-1.390 E7.09435 F3600
G1 X-9.510 Y-2.040 E7.11598 F3600
G1 X-9.670 Y-2.540 E7.13344 F3600
G1 X-10.180 Y-3.050 E7.15742 F3600
G1 X-10.780 Y-3.280 E7.17880 F3600
G1 X-11.610 Y-3.330 E7.20645 F3600
G1 X-11.700 Y-3.320 E7.20946 F3600 ; close contour
G1 E6.20946 F3000 ; retract
G1 Z0.300 F9000 ; z-hop
G1 X-7.530 Y-3.160 F9000 ; travel
G1 Z0.100 F9000 ; lower
G1 E7.20946 F3000 ; un-retract
G1 X-8.050 Y-3.010 E7.22747 F3600
G1 X-8.280 Y-2.640 E7.24196 F3600
G1 X-8.210 Y2.680 E7.41891 F3600
G1 X-7.990 Y3.010 E7.43211 F3600
G1 X-7.710 Y3.120 E7.44211 F3600
G1 X-6.120 Y3.080 E7.49501 F3600
G1 X-5.290 Y2.980 E7.52282 F3600
G1 X-4.720 Y2.770 E7.54302 F3600
G1 X-4.190 Y2.380 E7.56491 F3600
G1 X-3.830 Y1.910 E7.58460 F3600
G1 X-3.580 Y1.390 E7.60379 F3600
G1 X-3.360 Y0.220 E7.64339 F3600
G1 X-3.380 Y-0.640 E7.67200 F3600
G1 X-3.540 Y-1.400 E7.69783 F3600
G1 X-3.990 Y-2.260 E7.73011 F3600
G1 X-4.280 Y-2.570 E7.74423 F3600
G1 X-4.750 Y-2.880 E7.76296 F3600
G1 X-5.760 Y-3.130 E7.79756 F3600
G1 X-7.480 Y-3.170 E7.85479 F3600
G1 X-7.530 Y-3.160 E7.85648 F3600 ; close contour
G1 E6.85648 F3000 ; retract
G1 Z0.300 F9000 ; z-hop
G1 X-18.380 Y-3.180 F9000 ; travel
G1 Z0.100 F9000 ; lower
G1 E7.85648 F3000 ; un-retract
G1 X-18.640 Y-3.110 E7.86544 F3600
G1 X-18.930 Y-2.770 E7.88030 F3600
G1 X-18.980 Y-2.390 E7.89305 F3600
G1 X-18.910 Y-2.110 E7.90265 F3600
G1 X-18.510 Y-1.770 E7.92011 F3600
G1 X-17.450 Y-1.830 E7.95542 F3600
G1 X-17.240 Y-1.770 E7.96269 F3600
G1 X-17.090 Y-1.620 E7.96974 F3600
G1 X-17.110 Y2.640 E8.11143 F3600
G1 X-17.000 Y2.890 E8.12051 F3600
G1 X-16.770 Y3.050 E8.12983 F3600
G1 X-16.510 Y3.110 E8.13871 F3600
G1 X-16.150 Y3.060 E8.15080 F3600
G1 X-15.870 Y2.820 E8.16306 F3600
G1 X-15.730 Y2.390 E8.17810 F3600
G1 X-15.730 Y-1.750 E8.31580 F3600
G1 X-15.560 Y-1.820 E8.32192 F3600
G1 X-14.530 Y-1.800 E8.35618 F3600
G1 X-14.140 Y-1.900 E8.36957 F3600
G1 X-13.950 Y-2.060 E8.37783 F3600
G1 X-13.830 Y-2.310 E8.38706 F3600
G1 X-13.880 Y-2.830 E8.40443 F3600
G1 X-14.090 Y-3.070 E8.41504 F3600
G1 X-14.420 Y-3.160 E8.42641 F3600
G1 X-18.360 Y-3.190 E8.55746 F3600
G1 X-18.380 Y-3.180 E8.55821 F3600 ; close contour
G1 E7.55821 F3000 ; retract
G1 Z0.300 F9000 ; z-hop
G1 X-6.550 Y-1.760 F9000 ; travel
G1 Z0.100 F9000 ; lower
G1 E8.55821 F3000 ; un-retract
G1 X-5.810 Y-1.720 E8.58286 F3600
G1 X-5.330 Y-1.600 E8.59931 F3600
G1 X-5.020 Y-1.300 E8.61366 F3600
G1 X-4.800 Y-0.670 E8.63585 F3600
G1 X-4.760 Y0.200 E8.66482 F3600
G1 X-4.930 Y1.000 E8.69202 F3600
G1 X-5.270 Y1.460 E8.71105 F3600
G1 X-5.850 Y1.660 E8.73145 F3600
G1 X-6.710 Y1.700 E8.76009 F3600
G1 X-6.850 Y1.600 E8.76581 F3600
G1 X-6.850 Y-1.700 E8.87557 F3600
G1 X-6.630 Y-1.750 E8.88307 F3600
G1 X-6.550 Y-1.760 E8.88576 F3600 ; close contour
;TYPE:Bottom surface
;WIDTH:0.40mm
G1 E7.88576 F3000 ; retract
G1 Z0.300 F9000 ; z-hop
G1 X10.020 Y-4.570 F9000 ; travel
G1 Z0.100 F9000 ; lower
G1 E8.88576 F3000 ; un-retract
G1 X12.260 Y-2.330 E8.99112 F3600
G1 E7.99112 F3000 ; retract
G1 Z0.300 F9000 ; z-hop
G1 X8.800 Y-5.460 F9000 ; travel
G1 Z0.100 F9000 ; lower
G1 E8.99112 F3000 ; un-retract
G1 X13.170 Y-1.090 E9.19667 F3600
G1 E8.19667 F3000 ; retract
G1 Z0.300 F9000 ; z-hop
G1 X7.940 Y-5.970 F9000 ; travel
G1 Z0.100 F9000 ; lower
G1 E9.19667 F3000 ; un-retract
G1 X13.590 Y-0.330 E9.46219 F3600
G1 E8.46219 F3000 ; retract
G1 Z0.300 F9000 ; z-hop
G1 X7.240 Y-6.330 F9000 ; travel
G1 Z0.100 F9000 ; lower
G1 E9.46219 F3000 ; un-retract
G1 X13.640 Y0.060 E9.76299 F3600
G1 E8.76299 F3000 ; retract
G1 Z0.300 F9000 ; z-hop
G1 X6.610 Y-6.630 F9000 ; travel
G1 Z0.100 F9000 ; lower
G1 E9.76299 F3000 ; un-retract
G1 X13.580 Y0.340 E10.09084 F3600
G1 E9.09084 F3000 ; retract
G1 Z0.300 F9000 ; z-hop
G1 X6.050 Y-6.850 F9000 ; travel
G1 Z0.100 F9000 ; lower
G1 E10.09084 F3000 ; un-retract
G1 X11.140 Y-1.760 E10.33026 F3600
G1 E9.33026 F3000 ; retract
G1 Z0.300 F9000 ; z-hop
G1 X11.500 Y-1.400 F9000 ; travel
G1 Z0.100 F9000 ; lower
G1 E10.33026 F3000 ; un-retract
G1 X13.470 Y0.570 E10.42292 F3600
G1 E9.42292 F3000 ; retract
G1 Z0.300 F9000 ; z-hop
G1 X5.510 Y-7.050 F9000 ; travel
G1 Z0.100 F9000 ; lower
G1 E10.42292 F3000 ; un-retract
G1 X10.740 Y-1.820 E10.66893 F3600
G1 E9.66893 F3000 ; retract
G1 Z0.300 F9000 ; z-hop
G1 X11.580 Y-0.980 F9000 ; travel
G1 Z0.100 F9000 ; lower
G1 E10.66893 F3000 ; un-retract
G1 X13.340 Y0.790 E10.75195 F3600
G1 E9.75195 F3000 ; retract
G1 Z0.300 F9000 ; z-hop
G1 X5.020 Y-7.200 F9000 ; travel
G1 Z0.100 F9000 ; lower
G1 E10.75195 F3000 ; un-retract
G1 X10.400 Y-1.820 E11.00500 F3600
G1 E10.00500 F3000 ; retract
G1 Z0.300 F9000 ; z-hop
G1 X11.540 Y-0.680 F9000 ; travel
G1 Z0.100 F9000 ; lower
G1 E11.00500 F3000 ; un-retract
G1 X13.210 Y0.990 E11.08356 F3600
G1 E10.08356 F3000 ; retract
G1 Z0.300 F9000 ; z-hop
G1 X4.560 Y-7.320 F9000 ; travel
G1 Z0.100 F9000 ; lower
G1 E11.08356 F3000 ; un-retract
G1 X10.060 Y-1.820 E11.34226 F3600
G1 E10.34226 F3000 ; retract
G1 Z0.300 F9000 ; z-hop
G1 X11.450 Y-0.430 F9000 ; travel
G1 Z0.100 F9000 ; lower
G1 E11.34226 F3000 ; un-retract
G1 X13.080 Y1.200 E11.41893 F3600
G1 E10.41893 F3000 ; retract
G1 Z0.300 F9000 ; z-hop
G1 X4.110 Y-7.430 F9000 ; travel
G1 Z0.100 F9000 ; lower
G1 E11.41893 F3000 ; un-retract
G1 X9.720 Y-1.820 E11.68281 F3600
G1 E10.68281 F3000 ; retract
G1 Z0.300 F9000 ; z-hop
G1 X11.330 Y-0.210 F9000 ; travel
G1 Z0.100 F9000 ; lower
G1 E11.68281 F3000 ; un-retract
G1 X12.950 Y1.410 E11.75901 F3600
G1 E10.75901 F3000 ; retract
G1 Z0.300 F9000 ; z-hop
G1 X3.680 Y-7.520 F9000 ; travel
G1 Z0.100 F9000 ; lower
G1 E11.75901 F3000 ; un-retract
G1 X9.380 Y-1.820 E12.02712 F3600
G1 E11.02712 F3000 ; retract
G1 Z0.300 F9000 ; z-hop
G1 X11.190 Y-0.010 F9000 ; travel
G1 Z0.100 F9000 ; lower
G1 E12.02712 F3000 ; un-retract
G1 X12.810 Y1.600 E12.10308 F3600
G1 E11.10308 F3000 ; retract
G1 Z0.300 F9000 ; z-hop
G1 X3.260 Y-7.600 F9000 ; travel
G1 Z0.100 F9000 ; lower
G1 E12.10308 F3000 ; un-retract
G1 X9.040 Y-1.820 E12.37496 F3600
G1 E11.37496 F3000 ; retract
G1 Z0.300 F9000 ; z-hop
G1 X11.040 Y0.180 F9000 ; travel
G1 Z0.100 F9000 ; lower
G1 E12.37496 F3000 ; un-retract
G1 X12.660 Y1.800 E12.45116 F3600
G1 E11.45116 F3000 ; retract
G1 Z0.300 F9000 ; z-hop
G1 X2.860 Y-7.660 F9000 ; travel
G1 Z0.100 F9000 ; lower
G1 E12.45116 F3000 ; un-retract
G1 X8.700 Y-1.820 E12.72585 F3600
G1 E11.72585 F3000 ; retract
G1 Z0.300 F9000 ; z-hop
G1 X10.900 Y0.380 F9000 ; travel
G1 Z0.100 F9000 ; lower
G1 E12.72585 F3000 ; un-retract
G1 X12.520 Y2.000 E12.80205 F3600
G1 E11.80205 F3000 ; retract
G1 Z0.300 F9000 ; z-hop
G1 X2.470 Y-7.710 F9000 ; travel
G1 Z0.100 F9000 ; lower
G1 E12.80205 F3000 ; un-retract
G1 X8.390 Y-1.790 E13.08051 F3600
G1 E12.08051 F3000 ; retract
G1 Z0.300 F9000 ; z-hop
G1 X10.760 Y0.580 F9000 ; travel
G1 Z0.100 F9000 ; lower
G1 E13.08051 F3000 ; un-retract
G1 X12.370 Y2.190 E13.15624 F3600
G1 E12.15624 F3000 ; retract
G1 Z0.300 F9000 ; z-hop
G1 X2.090 Y-7.750 F9000 ; travel
